X: 35687
T: Saint Anne's
R: reel
M: 4/4
K: Dmajor
|:A2|f2fg fedB|A2FG AFAd|BGGG G2FG|BAAF A2d2|
f2fg fedB|A2FG AFAd|BGBd cdec|d2f2 d2:|
|:ag|fdfa fdfa|aggf g2gf|edcB ABce|baa^g a2a=g|
fdfa fdfa|aggf g2gf|edcB ABcd|fdec d2:|

